X:1
T:A Farewell to Saint Petersburg: No. 10 "The Lark"
T:A Farewell to Saint Petersburg: No. 10 "The Lark"
T:Прощание с Петербургом: No.10 "Жаворонок"
T:Mikhail Glinka 
T:arr. Mily Balakirev
C:Mikhail Glinka
%%score { ( 1 3 ) | ( 2 4 5 6 ) }
L:1/8
Q:1/4=68
M:4/4
K:Db
V:1 treble nm="鋼琴" snm="Pno."
V:3 treble 
V:2 bass 
V:4 bass 
V:5 bass 
V:6 bass 
V:1
"^Andante quasi recitativo"!<(! (F2 B2!<)!!>(! A2 G2)!>)! | (F3 D/E/)[Q:1/4=32] !fermata!F4 | %2
[Q:1/4=68]!pp! z (d{/cd}c/B/b) z (d'{/c'd'}c'/b/g) | %3
 z (f'{/e'f'}e'/d'/!8va(!b'/a'/ f'')!8va)! z[Q:1/4=16] !fermata!z2 | %4
!mf![Q:1/4=68] (A2{/BA} GF B3) (B | E3 F)[Q:1/4=32] !fermata!G4 | %6
!pp![Q:1/4=68] z (g{/fg}f/e/e') z (g'{/f'g'}f'/e'/_c') | %7
 z!8va(! (b'{/a'b'}a'/g'/e''/d''/ g'')!8va)! z[Q:1/4=16] !fermata!z2 | %8
[Q:1/4=68]!>(! (B3 A/F/)!>)!!>(! (B3 G/E/)!>)! | (C3 D)[Q:1/4=32] !fermata!E4 | %10
!pp![Q:1/4=68] z (g{/fg}f/e/c) z (e'{/d'e'}d'/c'/e') | %11
 z!8va(! (c''{/g'_a'}g'/f'/d''/c''/ f'')!8va)! z[Q:1/4=16] !fermata!z2 || %12
!p![Q:1/4=74]"^Andantino" z8 | (f2 b2 a2 g2 | f3 d/e/ f4) | (e3 d/c/ f3) f | (B3 c d4) | %17
 (f2 b2 a2 g2 | f3 d/e/!<(! f4) | (a3!<)! f/d/) (a3 g/e/) | (d3 e f4) | (f2 b2 a2 f2) | %22
 (d2 a2 g4) | f2 _c'2 b3 f | (a4 g4) | (f2 b2 a2 g2 | f3 e d4) | (c3 d/e/ d2 B2) | (!>!f4 B4) | %29
 (f2 b2 a2 g2 | f3 e d4) | c>ceg !trill(!Tf4- | %32
!f! !trill(!Tf4- !trill)!!fermata!f4[Q:1/4=56] =e/f/[Q:1/4=62] (a/4g/4_e/4[Q:1/4=68]c/4A/4[Q:1/4=76]G/4E/4[Q:1/4=92]C/4E/4G/4A/4c/4e/4g/4a/4c'/4e'/4g'/4) (a'/4g'/4e'/4c'/4a/4g/4e/4c/4e/4g/4a/4c'/4e'/4g'/4)!p! (a'/4g'/4e'/4c'/4a/4g/4e/4c/4e/4g/4a/4c'/4e'/4g'/4)[Q:1/4=64] | %33
!pp! (a'/4g'/4e'/4c'/4a/4g/4e/4c/4e/4g/4a/4c'/4e'/4g'/4!8va(!a'/4c''/4(6:4:6e''/4d''/4c''/4_c''/4b'/4=a'/4) (=c''/4b'/4a'/4g'/4f'/4e'/4d'/4!8va)!c'/4b/4=a/4g/4f/4e/4d/4c/4B/4=A/4G/4F/4E/4D/4C/4[I:staff +1]B,/4=A,/4G,/4F,/4E,/4D,/4C,/4B,,/4=A,,/4G,,/4) | %34
[I:staff -1] x!<(! (6:4:6x/4[I:staff +1] B,,/4[I:staff -1]x/4[I:staff +1]D,/4[I:staff -1]x/4[I:staff +1]G,/4[I:staff -1](6:4:6x/4[I:staff +1]B,/4[I:staff -1]x/4D/4x/4G/4(6:4:6x/4B/4x/4d/4x/4g/4(6:4:6x/4b/4x/4d'/4x/4g'/4(6:4:6x/4!8va(!b'/4x/4d''/4!<)!x/4!f!g''/4 f''/!>(! e''/c''/a'/!8va)!!>)!!pp! (.f'[Q:1/4=82]"^ritard.".e'.c'[Q:1/4=76].=a.g[Q:1/4=70].f)[Q:1/4=32]"^" =e3[Q:1/4=70] g | %35
[Q:1/4=86]"^brillante, la melodica ben marcata" d/F/[Bf]/d/ b/[d'b']/f'/b/ e/A/[Ba]/e/ g/[bg']/e'/g/ | %36
 d/F/[Bf]/d/ (f/b/f'/d'/ c'/b/f/d/ c/B/F/f/) | %37
 (e/4G/4A/4B/4c/4d/4e/4f/4g/4a/4b/4c'/4d'/4e'/4f'/4g'/4!8va(!=a'/4b'/4c''/4d''/4e''/4f''/4e''/4d''/4c''/4b'/4a'/4g'/4!8va)!f'/4e'/4d'/4c'/4 | %38
 b/4c'/4d'/4e'/4!8va(!f'/4=g'/4=a'/4b'/4c''/4d''/4f''/4a'/4b'/4d''/4=e'/4a'/4f'/4b'/4c'/4e'/4!8va)!d'/4f'/4=a/4c'/4b/4d'/4=e/4a/4f/4b/4c/4e/4) | %39
 d/F/[Bf]/d/ b/[d'b']/f'/b/ e/A/[Ba]/e/ g/[bg']/e'/g/ | %40
 d/F/[Bf]/d/ (f/b/f'/d'/ c'/b/f/d/ c/B/F/f/) | %41
 (a/4c/4d/4e/4f/4g/4a/4b/4c'/4d'/4e'/4f'/4!8va(!g'/4a'/4b'/4c''/4d''/4e''/4f''/4e''/4d''/4c''/4b'/4a'/4g'/4f'/4e'/4d'/4!8va)!c'/4b/4a/4g/4 | %42
 f/4g/4a/4b/4a/4b/4c'/4d'/4c'/4d'/4e'/4f'/4c'/4=e'/4d'/4f'/4=g/4c'/4a/4d'/4=e/4g/4f/4a/4c/4e/4d/4f/4=G/4c/4A/4d/4) | %43
 _c/F/[cf]/d/ b/[d'b']/f'/b/ d/A/[da]/f/ f/[af']/d'/f/ | %44
 G/D/[Gd]/B/ a/[ba']/d'/a/ B/G/[Bg]/d/ B/[db]/g/B/ | %45
 _c/F/[cf]/d/!<(! _c'/[d'_c'']/f'/c'/ d/B/[db]/f/ f/[af']/c'/f/!<)! | %46
 e/A/[Ba]/e/"_cresc." a/[ba']/e'/a/ B/G/[Bg]/e/ B/[eb]/g/B/ | %47
!f! c/F/[cf]/e/ b/[d'b']/f'/b/ e/A/[Ba]/e/ g/[bg']/e'/g/ | %48
 c/F/[=Af]/c/ (f/=a/f'/!>(!d'/ c'/b/f/d/ c/B/F/f/)!>)! | %49
!p! (c/4c/4e/4f/4g/4a/4b/4c'/4d'/4e'/4f'/4g'/4!8va(!(5:4:5a'/4b'/4c''/4d''/4e''/4f''/4e''/4d''/4c''/4b'/4=a'/4b'/4_a'/4!8va)!g'/4f'/4e'/4d'/4c'/4b/4a/4g/4) | %50
 (f/4g/4=a/4b/4c'/4d'/4f'/4d'/4c'/4b/4a/4g/4f/4e/4d/4c/4)!<(! (B/4=A/4B/4d/4c/4d/4f/4=e/4f/4b/4=a/4b/4d'/4c'/4d'/4_e'/4)!<)! | %51
!f! !tenuto![ff']2 !tenuto![bb']2 !tenuto![aa']2 !tenuto![gg']2 | %52
 !tenuto![ff']2 !tenuto![ee']2 !tenuto![dd']2 !tenuto![=c=c']!tenuto![Bb] | %53
 !tenuto![cc']2 !tenuto![ee']!tenuto![gg'] !tenuto!f'/ x/ x !tenuto!f/ x/ x | %54
[K:bass] !tenuto!F/ x/ x !tenuto!F,/ x/ x[Q:1/4=40] !fermata!z4[Q:1/4=86] | %55
[I:staff +1](x/4x/4[I:staff -1]G,,/4B,,/4E,/4)[I:staff +1](x/4x/4[I:staff -1]B,,/4E,/4G,/4)[I:staff +1](x/4x/4[I:staff -1]E,/4G,/4B,/4)[I:staff +1](x/4x/4[I:staff -1]G,/4B,/4E/4)[K:treble][I:staff +1](x/4x/4[I:staff -1]B,/4E/4G/4)[I:staff +1](x/4x/4[I:staff -1]E/4G/4B/4)[I:staff +1](x/4x/4[I:staff -1]G/4B/4e/4)[I:staff +1](x/4x/4[I:staff -1]B/4e/4g/4) | %56
[I:staff +1](x/4x/4[I:staff -1]e/4g/4b/4)[I:staff +1](x/4x/4[I:staff -1]g/4b/4e'/4)[I:staff +1](x/4x/4[I:staff -1]b/4e'/4g'/4)[I:staff +1](x/4x/4!8va(![I:staff -1]e'/4g'/4b'/4)[I:staff +1](x/4x/4[I:staff -1]g'/4b'/4e''/4)[I:staff +1](x/4x/4[I:staff -1]b'/4e''/4g''/4)[I:staff +1](x/4x/4[I:staff -1]b'/4e''/4g''/4)[I:staff +1](x/4x/4[I:staff -1]b'/4e''/4g''/4) | %57
[I:staff +1](x/4x/4[I:staff -1]b'/4e''/4g''/4)[I:staff +1](x/4x/4[I:staff -1]b'/4e''/4g''/4)[I:staff +1]x/4"_quasi trillo"!<(![I:staff -1][b'e''g'']/4[I:staff +1]x/4[I:staff -1][b'e''g'']/4[I:staff +1]x/4[I:staff -1][b'e''g'']/4[I:staff +1]x/4[I:staff -1][b'e''g'']/4[I:staff +1]x/4[I:staff -1][b'e''g'']/4[I:staff +1]x/4[I:staff -1][b'e''g'']/4[I:staff +1]x/4[I:staff -1][b'e''g'']/4[I:staff +1]x/4[I:staff -1][b'e''g'']/4!<)![I:staff +1]x/4!>(![I:staff -1][b'e''g'']/4[I:staff +1]x/4[I:staff -1][b'e''g'']/4[I:staff +1]x/4[I:staff -1][b'e''g'']/4[I:staff +1]x/4[I:staff -1][b'e''g'']/4[I:staff +1]x/4[I:staff -1][b'e''g'']/4[I:staff +1]x/4[I:staff -1][b'e''g'']/4[I:staff +1]x/4[I:staff -1][b'e''g'']/4[I:staff +1]x/4[I:staff -1][b'e''g'']/4!>)![I:staff +1]x/4[I:staff -1]g''/4e''/4__e''/4!pp!d''/4c''/4_e''/4_c''/4 | %58
[Q:1/4=72]"^poco a poco ritard." b'/4=a'/4[Q:1/4=68]=c''/4_a'/4[Q:1/4=64]=g'/4_g'/4[Q:1/4=60]=a'/4f'/4[Q:1/4=56]_f'/4e'/4[Q:1/4=52]g'/4__e'/4!8va)![Q:1/4=48]d'/4c'/4[Q:1/4=44]_e'/4_c'/4[Q:1/4=40]b/4=a/4[Q:1/4=36]=c'/4_a/4[Q:1/4=32]c'/4=g/4[Q:1/4=28]c'/4_g/4 (._f.f.f.f) | %59
[Q:1/4=144] x/ x/ x/"_espressivo"[Q:1/4=72]"^Poco meno mosso" (f2 b2 a2 g2 | f3 d/e/ f4) | %61
 (!trill(!Te3 d/c/ f3) f | (B3 c d2) [Gce]2 | %63
!f![Q:1/4=86] x/4 x/4 x/4 !stemless!F,/4 !stemless!_C/4 !stemless!F/4 x/ x/4 f/-[Q:1/4=72] !tenuto![ff']2 !tenuto![bb']2 !tenuto![aa']2 !tenuto![gg']2 | %64
 [ff']3!>(! [dd']/[ee']/ [ff']3 f'!>)! | %65
!pp! (!trill(!Te'3[Q:1/4=80]"^poco accelerando" d'/c'/ f'3) f | (!trill(!Te3 d/c/ f3) f' | %67
 !trill(!Te'8{d'c'} | %68
[Q:1/4=90] (e'/4=d'/4f'/4e'/4!8va(!g'/4f'/4a'/4g'/4b'/4=a'/4c''/4b'/4d''/4c''/4e''/4=d''/4)!8va)!!8va(! (f''/4e''/4c''/4b'/4!8va)![I:staff +1]x/4x/4x/4x/4)!8va(![I:staff -1] (c''/4b'/4g'/4f'/4!8va)![I:staff +1]x/4x/4x/4x/4) | %69
[I:staff -1] (f'/4e'/4c'/4b/4[I:staff +1]x/4x/4x/4x/4)[I:staff -1] (c'/4b/4g/4f/4[I:staff +1]x/4x/4x/4x/4)[I:staff -1] (f/4e/4c/4B/4[I:staff +1]x/4x/4x/4x/4)[I:staff -1] (c/4B/4G/4F/4[I:staff +1]x/4x/4x/4x/4)[Q:1/4=86]"^ritard."[I:staff -1] (F[Q:1/4=82]E[Q:1/4=78]B,>[Q:1/4=74]C) | %70
[Q:1/4=30] z"_poco a poco morendo" (=d{/cd}c/B/b) z (=d'{/c'd'}c'/b/g)[Q:1/4=70] | %71
 z (=d'{/c'd'}c'/b/b') z!8va(! (=d''{/c''d''}c''/b'/g')!8va)! | %72
 z!8va(! (=d''{/c''d''}c''/b'/d'')!8va)! z!8va(! (=d''{/c''d''}c''/b'/d'')!8va)! | %73
 z!8va(! (=d''{/c''d''}c''/b'/d''){/c''d''} (c''/b'/d'')!ppp!{/c''d''} (c''/b'/d'')!8va)! | %74
 z4!pppp! .[B=db]2 z2 | .B,2[Q:1/4=35] z2 z4 |] %76
V:2
!ped! z8 |!ped! !fermata!z8!ped-up! | %2
!ped! !arpeggio![B,,F,B,D] z z2!ped![I:staff -1] !arpeggio![G,DGB]!ped-up![I:staff +1] z z2!ped-up! | %3
!ped![I:staff -1] !arpeggio![DAdf]!ped-up![I:staff +1] z z2 !fermata!z4 |!ped! z8!ped!!ped-up! | %5
 !fermata!z8 | %6
!ped! !arpeggio![E,B,EG] z z2!ped![I:staff -1] !arpeggio![_CG_ce]!ped-up![I:staff +1] z z2!ped-up! | %7
!ped![I:staff -1] !arpeggio![Gdgb]!ped-up![I:staff +1] z z2 !fermata!z4 |!ped! z8!ped!!ped-up! | %9
!ped! !fermata!z8!ped-up! | %10
!ped![I:staff -1] !arpeggio![A,EGc][I:staff +1] z z2!ped![I:staff -1] !arpeggio![Gceb]!ped-up![I:staff +1] z z2!ped-up! | %11
!ped![I:staff -1] !arpeggio![Fce=a]!ped-up![I:staff +1] z z2 !fermata!z4 || %12
!ped! !^!B,, ([F,B,][B,D][DF])!ped! !^!B,,!ped-up! ([F,B,][B,D][DF])!ped-up! | %13
!ped! !^!B,,!ped-up! ([F,B,][B,D][DF])!ped! !^!B,,!ped-up! ([G,B,][B,E][EG]) | %14
!ped! !^!B,,!ped-up! ([F,B,D][B,DF])([B,DF][DFB][B,DF])([B,DF][F,B,D]) | %15
!ped! !^!B,,!ped-up! ([G,B,][B,E][EG])!ped! !^!=A,,!ped-up! ([F,C][CE][EF]) | %16
!ped! !^!B,,!ped-up! ([F,B,D][B,DF])([B,DF][DFB][B,DF])([B,DF][F,B,D]) | %17
!ped! !^!B,,!ped-up! ([F,B,][B,D][DF])!ped! !^!B,,!ped-up! ([G,B,][B,E][EG]) | %18
!ped! !^!B,,!ped-up! ([F,B,D][B,DF])([B,DF][DFB][B,DF])([B,DF][F,B,D]) | %19
!ped! !^!A,,!ped-up! ([F,A,][A,D][DF])!ped! !^!A,,,!ped-up! ([G,A,][A,C][CA]) | %20
!ped! !^!D,,!ped-up!!>(! ([F,A,D][A,DF])([A,DF][DFA][A,DF])([A,DF]!>)![F,A,D]) | %21
!ped! !^!D,!ped-up! [A,D][DF][I:staff -1][Ad]!ped![I:staff +1] !^!D,!ped-up! [A,D][DF][I:staff -1][Ad] | %22
!ped![I:staff +1] !^!D,!ped-up! ([G,D][B,G][G,D])!ped! ([DB]!ped-up![B,G])([B,G][G,D]) | %23
!ped! !^!D,!ped-up! [A,D][DF][I:staff -1][Ad]!ped![I:staff +1] !^!D,!ped-up! [A,D][DF][I:staff -1][Ad] | %24
!ped![I:staff +1] !^!D,!ped-up! ([G,D][B,G][G,D])!ped! ([DB]!ped-up![B,G])([B,G][G,D]) | %25
!ped! !^!=D,!ped-up! ([B,F][FA][AB])!ped! !^!E,!ped-up! ([B,E][EG][GB]) | %26
!ped! !^!=A,,!ped-up! ([F,C][CE][EF])!ped! !^!B,,!ped-up! ([F,B,][B,D][DF]) | %27
!ped! !^!G,!ped-up! ([B,C][CE][EB])!ped! !^!F,!ped-up! ([FB][DF][B,D]) | %28
!ped! !^!F,,!ped-up! ([F,=A,][A,E][EF])!ped! !^!B,,!ped-up! ([F,B,][B,D][DF]) | %29
!ped! !^!=D,!ped-up! ([B,F][FA][AB])!ped! !^!E,!ped-up! ([B,E][EG][GB]) | %30
!ped! !^!=A,,!ped-up! ([F,C][CE][EF])!ped! !^!B,,!ped-up! ([F,B,][B,D][DF]) | %31
!ped! !^!E,!ped-up! ([B,E][EG][GB])!ped! !^!F,!ped-up! ([B,D][DF][FB]) | %32
 !^!F,, ([F,C][CE][E=A]) !fermata!z4 x!ped-up!!ped![I:staff -1] (c/4B/4G/4E/4C/4B,/4G,/4E,/4G,/4B,/4C/4E/4G/4B/4c/4e/4g/4b/4)!ped! (c'/4!ped-up!b/4g/4e/4c/4B/4G/4E/4G/4B/4c/4e/4g/4b/4)!ped! (c'/4!ped-up!b/4g/4e/4c/4B/4G/4E/4G/4B/4c/4e/4g/4b/4) | %33
!ped! (c'/4!ped-up!b/4g/4e/4c/4B/4G/4E/4G/4B/4c/4e/4g/4b/4!8va(!c'/4e'/4g')!ped!!8va)![I:staff +1] !arpeggio![F,CE=A]2 z2 z4 | %34
!ped! (F,,, (6:4:6F,,/4)x/4=A,,/4x/4C,/4x/4(6:4:6F,/4x/4=A,/4x/4[I:staff -1]C/4[I:staff +1]x/4[I:staff -1](6:4:6F/4[I:staff +1]x/4[I:staff -1]=A/4[I:staff +1]x/4[I:staff -1]c/4[I:staff +1]x/4[I:staff -1](6:4:6f/4[I:staff +1]x/4[I:staff -1]=a/4[I:staff +1]x/4[I:staff -1]c'/4[I:staff +1]x/4[I:staff -1](6:4:6f'/4[I:staff +1]x/4!8va(![I:staff -1]=a'/4[I:staff +1]x/4[I:staff -1]c''/4!8va)![I:staff +1] x/4!ped! x2!ped-up! x8 x2 | %35
!ped! [B,,F,] (D{/CD}C/B,/B)!ped! !arpeggio![E,B,E]!ped-up![K:treble] (d{/cd}c/B/G) | x10!ped-up! %36
[K:bass]!ped! B,,!ped-up! [F,B,D]!ped![B,DF]!ped-up![K:treble] !tenuto!d/!tenuto!e/ !tenuto!f (.[FB].[DF].[B,D]) | %37
!ped! G,!ped-up! (.[CE].[EB]) !tenuto!d/!tenuto!c/ !tenuto!f (.F,.[CE=A]) !tenuto!f | %38
!ped! B!ped-up! (.B,.[DF]) !tenuto!c !tenuto!d2 z2 | %39
[K:bass]!ped! [B,,F,]!ped-up! (D{/CD}C/B,/B)!ped! !arpeggio![E,B,E]!ped-up![K:treble] (d{/cd}c/B/G) | %40
[K:bass]!ped! B,,!ped-up! [F,B,D]!ped![B,DF]!ped-up![K:treble] !tenuto!d/!tenuto!e/ !tenuto!f .[FB].[DF][K:bass] __B,, | %41
!ped! A,,!ped-up! (.[F,A,D].[A,DF])[K:treble] !tenuto!f/!tenuto!d/ !tenuto!a (.[A,EG].[EGc]) !tenuto!g/!tenuto!e/ | %42
!ped! !tenuto!d3!ped-up! !tenuto!e !tenuto!f2 z2 | %43
[K:bass]!ped! (.[A,D]!ped-up!.[D,_C]) (.D,.D,,) (.[CF].[F,D]) (.D,.D,,) | %44
!ped! (.[G,D]!ped-up!.[D,B,]) (.D,.D,,) (.[B,G].[G,D]) (.[G,D].[D,B,]) | %45
!ped! (.[A,D]!ped-up!.[D,_C]) (.D,.D,,) (.[A,F].[D,C]) (.=D,.=D,,) | %46
!ped! (.[G,E]!ped-up!.[E,B,]) (._D,._D,,) (.[G,E].[C,B,]) (.B,,.B,,,) | %47
!ped! [=A,,,=A,,]!ped-up! !arpeggio![F,CE]!arpeggio![B,,F,D] [B,,,B,,] !arpeggio![E,,B,,E,B,][K:treble] (d{/cd}c/B/G) | %48
[K:bass]!ped! =A,,!ped-up! (.[F,CE].[CEF])[K:treble] !tenuto!e !tenuto!d2 z2 | %49
!ped! G,!ped-up! (.[B,E].[EB]) !tenuto!d/!tenuto!e/ !tenuto!d [F,B,D] !tenuto!B [B,DF] | %50
[K:bass]!ped! (.[CE=A]!ped-up!.[F,CE]) (.F,.F,,) (.[B,DF].[F,B,D]) (.B,,.B,,,) | %51
!ped! x/!ped-up! !stemless![D,,D,]/ !stemless![F,A,_C]/ x/ x/ !stemless![=D,,=D,]/ !stemless![F,A,B,]/ x/ x/ !stemless![E,,E,]/ !stemless![G,B,E]/ x/ x/ !stemless![A,,,A,,]/ !stemless![E,G,=C]/ x/ | %52
!ped! x/!ped-up! !stemless![D,,D,]/ !stemless![F,A,DF]/ x/ x/ !stemless![E,,E,]/ !stemless![E,G,_CE]/ x/ x/ !stemless![=E,,=E,]/ !stemless![E,G,B,D]/ x/ x/ !stemless![F,,F,]/ !stemless![F,B,DF]/ x/ | %53
!ped! x/!ped-up! !stemless![G,,G,]/ !stemless![G,B,E]/ x/ x !stemless![E,B,C]/ !stemless![E,,E,]/ [F,,F,][K:treble] !stemless![ce]/ !stemless![FB]/ x[K:bass] !stemless![CE]/ !stemless![F,B,]/ | %54
!ped! x!ped-up! !stemless![C,E,]/ !stemless![F,,B,,]/ x !stemless![C,,E,,]/ !stemless![G,,,B,,,]/!ped! !>!!fermata!F,,,3!ped-up! C,, | %55
!ped! !stemless!F,,/4!ped-up! !stemless!=A,,/4 x/4 x/ !stemless!A,,/4 !stemless!C,/4 x/4 x/ !stemless!C,/4 !stemless!F,/4 x/4 x/ !stemless!F,/4 !stemless!A,/4 x/4 x/ !stemless!A,/4 !stemless!C/4 x/4 x/ !stemless!C/4 !stemless!F/4 x/4 x/[K:treble] !stemless!F/4 !stemless!=A/4 x/4 x/ !stemless!A/4 !stemless!c/4 x/4 x/ | %56
 !stemless!c/4 !stemless!f/4 x/4 x/ !stemless!f/4 !stemless!=a/4 x/4 x/ !stemless!a/4 !stemless!c'/4 x/4 x/!8va(! !stemless!c'/4 !stemless!f'/4 x/4 x/ !stemless!f'/4 !stemless!=a'/4 x/4 x/ !stemless!a'/4 !stemless!c''/4 x/4 x/ !stemless!a'/4 !stemless!c''/4 x/4 x/ !stemless!a'/4 !stemless!c''/4 x/4 x/ | %57
 !stemless!=a'/4 !stemless!c''/4 x/4 x/ !stemless!a'/4 !stemless!c''/4 x/4 x/!ped! !stemless![a'c''f'']/4 x/4!ped-up! !stemless![a'c''f'']/4 x/4 !stemless![a'c''f'']/4 x/4 !stemless![a'c''f'']/4 x/4 !stemless![a'c''f'']/4 x/4 !stemless![a'c''f'']/4 x/4 !stemless![a'c''f'']/4 x/4 !stemless![a'c''f'']/4 x/4 !stemless![a'c''f'']/4 x/4 !stemless![a'c''f'']/4 x/4 !stemless![a'c''f'']/4 x/4 !stemless![a'c''f'']/4 x/4 !stemless![a'c''f'']/4 x/4 !stemless![a'c''f'']/4 x/4 !stemless![a'c''f'']/4 x/4 !stemless![a'c''f'']/4 x/4 !stemless![a'c''f'']/4!8va)!!ped! x/4!ped-up! x x/ | %58
 x8 x x |[K:bass]!ped! (D,,/D,/A,/ [DA]8-) | x/!ped-up! [DA]8 | (D2 C4) _C2- | %62
!ped! C2!ped-up! [B,G]2 [__B,D]2 [A,=C]2 | %63
!ped! D,,/4!ped-up!A,,/4D,/4[I:staff -1]x/4x/4x/4[I:staff +1][K:treble]D/4-A/4-_c/4-[I:staff -1]x/4[I:staff +1] x/4!ped! [DAc]8-!ped-up! | %64
!ped! [DAc]8!ped-up! |!ped! !arpeggio![Gceb]4!ped-up! !arpeggio![Fce=a]3 z | %66
!ped! !arpeggio![G,CEB]4!ped-up!!<(! !arpeggio![F,CE=A]3 z | %67
!ped! !arpeggio![Gde=a]2!ped-up!!<)!!>(! !arpeggio![Gceb]2 z4!>)! | %68
!ped! x4!ped-up!!ped! x!ped-up! !stemless!g'/4 !stemless!e'/4 !stemless!c'/4 !stemless!b/4!ped! x!ped-up! !stemless!e'/4 !stemless!c'/4 !stemless!b/4 !stemless!g/4 | %69
!ped! x!ped-up! !stemless!g/4 !stemless!e/4 !stemless!c/4 !stemless!B/4!ped! x!ped-up! !stemless!e/4 !stemless!c/4 !stemless!B/4 !stemless!G/4!ped! x!ped-up![K:bass] !stemless!G/4 !stemless!E/4 !stemless!C/4 !stemless!B,/4!ped! x!ped-up![K:bass] !stemless!E/4 !stemless!C/4 !stemless!B,/4 !stemless!G,/4!ped! x4!ped-up! | %70
!p!!ped! (12:8:12z/ (B,,,/F,,/!ped-up!B,,/F,/B,/=D/F/B,/D/F,/B,/)!ped! (12:8:12z/!ped-up! (E,,/B,,/E,/G,/B,/E/G/B,/E/G,/B,/) | %71
!p!!ped! (12:8:12z/!ped-up! (B,,/F,/B,/F/[K:treble]B/=d/f/B/d/F/B/)!ped! (12:8:12z/!ped-up![K:bass] (E,/B,/E/[K:treble]G/B/e/g/B/e/G/B/) | %72
!ped! (12:8:12z/!ped-up! (B,/F/B/=d/f/g/e/g/B/e/G/)!ped! (12:8:12z/!ped-up! (B,/F/B/d/f/g/e/g/B/e/G/) | %73
!ped! (6:4:6z/!ped-up! (B,/F/B/=d/f/)!ped! ([gb]!ped-up![Bf]) ([gb][Bf]) ([gb][Bf]) | %74
 z4[K:bass]!ped-up!!ped! .[B,F]2 z2 |!ped! .[B,,,B,,]2!ped-up! z2 z4 |] %76
V:3
 x8 | x8 | x8 | x3!8va(! x2!8va)! x3 | x8 | x8 | x8 | x!8va(! x4!8va)! x3 | x8 | x8 | x8 | %11
 x!8va(! x4!8va)! x3 || x8 | x8 | x8 | x8 | x8 | x8 | x8 | x8 | x8 | %21
 x3 !stemless![Ad] x3 !stemless![Ad] | x8 | x3 !stemless![Ad] x3 !stemless![Ad] | x8 | x8 | x8 | %27
 x8 | x8 | x8 | x8 | x8 | x41/2 | x7/2!8va(! x13/4!8va)! x25/4 | x31/6!8va(! x17/6!8va)! x10 | %35
 !tenuto!f x !tenuto!b x !tenuto!a x !tenuto!g x | !tenuto!f x7 | !tenuto!e x3!8va(! x3!8va)! x | %38
 x!8va(! x4!8va)! x3 | !tenuto!f x !tenuto!b x !tenuto!a x !tenuto!g x | !tenuto!f x7 | %41
 !tenuto!a x2!8va(! x4!8va)! x | x8 | !tenuto!f x !tenuto!b x !tenuto!a x !tenuto!f x | %44
 !tenuto!d x !tenuto!a x !tenuto!g x3 | !tenuto!f x !tenuto!_c' x !tenuto!b x !tenuto!f x | %46
 !tenuto!a x3 !tenuto!g x3 | !tenuto!f x !tenuto!b x !tenuto!a x !tenuto!g x | !tenuto!f x7 | %49
 !tenuto!c x2!8va(! x3!8va)! x2 | !tenuto!f x3 !tenuto!B x3 | %51
 f/[I:staff +1]x/x/[I:staff -1][FA_c]/ b/[I:staff +1]x/x/[I:staff -1][FAB]/ a/[I:staff +1]x/x/[I:staff -1][GBe]/ g/[I:staff +1]x/x/[I:staff -1][EG=c]/ | %52
 f/[I:staff +1]x/x/[I:staff -1][FAd]/ e/[I:staff +1]x/x/[I:staff -1][G_c]/ d/[I:staff +1]x/x/[I:staff -1][=GB]/ =c/[I:staff +1]x/x/[I:staff -1][df]/ | %53
 c/[I:staff +1]x/x/[I:staff -1][GB]/ e/[GB]/[I:staff +1]x/x/[I:staff -1] c'/[fb]/[I:staff +1]x/x/[I:staff -1] c/[FB]/[I:staff +1]x/x/ | %54
[I:staff -1][K:bass] C/[F,B,]/[I:staff +1]x/x/[I:staff -1] C,/[F,,B,,]/[I:staff +1]x/x/ x4 | %55
 x5[I:staff -1][K:treble] x5 | x17/4!8va(! x23/4 | x25/2 | x3!8va)! x7 | x3/2 _c8- | c8 | %61
 (B4 =A2) (_A2- | A2!<(! G2) G2!<)! E2 | x43/4 | x8 | x8 | x8 | x8 | %68
 x!8va(! x3!8va)!!8va(! x!8va)! x!8va(! x!8va)! x | x12 | !arpeggio![F,B,=D]4 !arpeggio![G,B,EG]4 | %71
 !arpeggio![=DFB=d]4 !arpeggio![GBeg]4 | %72
 !arpeggio![=dfb=d']2!8va(! x2!8va)! !arpeggio![dfbd']2!8va(! x2!8va)! | %73
 !arpeggio![=dfb=d']2!8va(! (e'=d') (e'd') (e'd')!8va)! | x8 | x8 |] %76
V:4
 x8 | x8 | x8 | x8 | x8 | x8 | x8 | x8 | x8 | x8 | x8 | x8 || x8 | x8 | x8 | x8 | x8 | x8 | x8 | %19
 x8 | x8 | (!>!_C8 | B,) x7 | (!>!_C8 | B,) x7 | x8 | x8 | x8 | x8 | x8 | x8 | x8 | x41/2 | %33
 x7/2!8va(! x3/2!8va)! x11/2 !stemless!B,/4 !stemless!=A,/4 !stemless!G,/4 !stemless!F,/4 !stemless!E,/4 !stemless!D,/4 !stemless!C,/4 !stemless!B,,/4 !stemless!A,,/4 !stemless!G,,/4 | %34
 x16/3!8va(! x/!8va)! x73/6 | x5[K:treble] x3 |[K:bass] x3[K:treble] x5 | x8 | %38
 x4 z (.[FB].[DF].[B,D]) |[K:bass] x5[K:treble] x3 |[K:bass] x3[K:treble] x4[K:bass] x | %41
 x3[K:treble] x5 | z (.[FA].[DF]) z z (.[Ad].[FA].[DF]) |[K:bass] x8 | x8 | x8 | x8 | %47
 x5[K:treble] x3 |[K:bass] x3[K:treble] x z (.[FB].[DF].[B,D]) | x8 |[K:bass] x8 | x8 | x8 | %53
 x5[K:treble] x2[K:bass] x | x8 | x15/2[K:treble] x5/2 | x15/4!8va(! x25/4 | x43/4!8va)! x7/4 | %58
 x10 |[K:bass] x19/2 | x8 | (G,4 F,2) D,2 | G,4 E,2 !arpeggio![A,,E,]2 | x3/2[K:treble] D/ x35/4 | %64
 x8 | x8 | x8 | x8 | x8 | x5[K:bass] x2[K:bass] x5 | x8 | %71
 x5/3[K:treble] x8/3[K:bass] x[K:treble] x8/3 | x2 !arpeggio![be']2 x2 !arpeggio![be']2 | x8 | %74
 x4[K:bass] x4 | x8 |] %76
V:5
 x8 | x8 | x8 | x8 | x8 | x8 | x8 | x8 | x8 | x8 | x8 | x8 || x8 | x8 | x8 | x8 | x8 | x8 | x8 | %19
 x8 | x8 | x8 | x8 | x8 | x8 | x8 | x8 | x8 | x8 | x8 | x8 | x8 | x41/2 | %33
 x7/2!8va(! x3/2!8va)! x8 | x16/3!8va(! x/!8va)! x73/6 | x5[K:treble] x3 | %36
[K:bass] x3[K:treble] x5 | x8 | x8 |[K:bass] x5[K:treble] x3 |[K:bass] x3[K:treble] x4[K:bass] x | %41
 x3[K:treble] x5 | x8 |[K:bass] x8 | x8 | x8 | x8 | x5[K:treble] x3 |[K:bass] x3[K:treble] x5 | %49
 x8 |[K:bass] x8 | x8 | x8 | x5[K:treble] x2[K:bass] x | x8 | x15/2[K:treble] x5/2 | %56
 x15/4!8va(! x25/4 | x43/4!8va)! x7/4 | x10 |[K:bass] x19/2 | x8 | z4 E2 F2- | F2 x6 | %63
 x3/2[K:treble] x/4 A/ x17/2 | x8 | x8 | x8 | x8 | x8 | x5[K:bass] x2[K:bass] x5 | x8 | %71
 x5/3[K:treble] x8/3[K:bass] x[K:treble] x8/3 | x8 | x8 | x4[K:bass] x4 | x8 |] %76
V:6
 x8 | x8 | x8 | x8 | x8 | x8 | x8 | x8 | x8 | x8 | x8 | x8 || x8 | x8 | x8 | x8 | x8 | x8 | x8 | %19
 x8 | x8 | x8 | x8 | x8 | x8 | x8 | x8 | x8 | x8 | x8 | x8 | x8 | x41/2 | %33
 x7/2!8va(! x3/2!8va)! x8 | x16/3!8va(! x/!8va)! x73/6 | x5[K:treble] x3 | %36
[K:bass] x3[K:treble] x5 | x8 | x8 |[K:bass] x5[K:treble] x3 |[K:bass] x3[K:treble] x4[K:bass] x | %41
 x3[K:treble] x5 | x8 |[K:bass] x8 | x8 | x8 | x8 | x5[K:treble] x3 |[K:bass] x3[K:treble] x5 | %49
 x8 |[K:bass] x8 | x8 | x8 | x5[K:treble] x2[K:bass] x | x8 | x15/2[K:treble] x5/2 | %56
 x15/4!8va(! x25/4 | x43/4!8va)! x7/4 | x10 |[K:bass] x19/2 | x8 | x8 | x8 | %63
 x3/2[K:treble] x/ _c/ x33/4 | x8 | x8 | x8 | x8 | x8 | x5[K:bass] x2[K:bass] x5 | x8 | %71
 x5/3[K:treble] x8/3[K:bass] x[K:treble] x8/3 | x8 | x8 | x4[K:bass] x4 | x8 |] %76

